style-guide/assets/xd-icons-pencil-tiny.svg

<?xml version="1.0" encoding="UTF-8"?>
<svg width="12px" height="12px" viewBox="0 0 12 12" version="1.1" xmlns="http://www.w3.org/2000/svg" xmlns:xlink="http://www.w3.org/1999/xlink">
    <!-- Generator: Sketch 51.3 (57544) - http://www.bohemiancoding.com/sketch -->
    <title>pencil</title>
    <desc>Created with Sketch.</desc>
    <defs></defs>
    <g id="pencil" stroke="none" stroke-width="1" fill="none" fill-rule="evenodd">
        <path d="M8.5,6.08625 L5.914,3.50025 L7,2.41425 L9.586,5.00025 L8.5,6.08625 Z M4.586,10.00025 L2,10.00025 L2,7.41425 L4.5,4.91425 L7.086,7.50025 L4.586,10.00025 Z M11.707,4.29325 L7.707,0.29325 C7.316,-0.09775 6.684,-0.09775 6.293,0.29325 L0.293,6.29325 C0.105,6.48125 0,6.73525 0,7.00025 L0,11.00025 C0,11.55225 0.448,12.00025 1,12.00025 L5,12.00025 C5.265,12.00025 5.52,11.89525 5.707,11.70725 L11.707,5.70725 C12.098,5.31625 12.098,4.68425 11.707,4.29325 Z" id="Fill-1" fill="#000000"></path>
    </g>
</svg>

<svg viewBox="0 0 12 12" xmlns="http://www.w3.org/2000/svg">
  <path d="M8.5 6.086L5.914 3.5 7 2.414 9.586 5 8.5 6.086zM4.586 10H2V7.414l2.5-2.5L7.086 7.5l-2.5 2.5zm7.121-5.707l-4-4a.999.999 0 0 0-1.414 0l-6 6A1 1 0 0 0 0 7v4a1 1 0 0 0 1 1h4c.265 0 .52-.105.707-.293l6-6a.999.999 0 0 0 0-1.414z"/>
</svg>
